Papirus/24x24/actions/edit-select-text.svg

<svg xmlns="http://www.w3.org/2000/svg" width="24" height="24" version="1.1">
 <defs>
  <style id="current-color-scheme" type="text/css">
   .ColorScheme-Text { color:#444444; } .ColorScheme-Highlight { color:#4285f4; }
  </style>
 </defs>
 <path style="fill:currentColor" class="ColorScheme-Text" d="m 14,4 v 2 h 2 v 12 h -2 v 2 h 6 V 18 H 18 V 6 h 2 V 4 H 18 16 Z M 14,18 9.7148438,6 H 8.0820312 L 4,18 h 2.0410156 l 0.8476563,-3 h 4.0195311 l 0.847656,3 z M 8.8984375,9.427734 10.087891,13 H 7.7070312 Z"/>
</svg>

<svg xmlns="http://www.w3.org/2000/svg" width="24" height="24" version="1.1">
 <defs>
  <style id="current-color-scheme" type="text/css">
   .ColorScheme-Text { color:#444444; } .ColorScheme-Highlight { color:#4285f4; }
  </style>
 </defs>
 <path style="fill:currentColor" class="ColorScheme-Text" d="M 14,4 V 6 H 16 V 18 H 14 V 20 H 20 V 18 H 18 V 6 H 20 V 4 Z M 14,18 9.7148,6 H 8.082 L 4,18 H 6.041 L 6.8887,15 H 10.908 L 11.756,18 Z M 8.8984,9.4277 10.088,13 H 7.707 Z"/>
</svg>
